icons/svg/24x24/subtract squircle/filled.svg

<svg width="24" height="24" fill="none" xmlns="http://www.w3.org/2000/svg">
  <path fill-rule="evenodd" clip-rule="evenodd" d="M8 13a1 1 0 110-2h8a1 1 0 110 2H8zm9.246-10.441A24.711 24.711 0 0012 2c-1.8 0-3.555.192-5.245.558a5.472 5.472 0 00-4.197 4.196A24.762 24.762 0 002 12c0 1.8.192 3.555.558 5.245a5.472 5.472 0 004.196 4.196C8.445 21.808 10.2 22 12 22c1.8 0 3.555-.192 5.246-.559a5.47 5.47 0 004.195-4.196C21.808 15.555 22 13.8 22 12c0-1.8-.192-3.555-.559-5.246a5.47 5.47 0 00-4.195-4.195z" fill="#000"/>
</svg>

<svg xmlns="http://www.w3.org/2000/svg" width="24" height="24" viewBox="0 0 24 24">
  <path fill-rule="evenodd" d="M17,13 L7,13 C6.447,13 6,12.553 6,12 C6,11.447 6.447,11 7,11 L17,11 C17.553,11 18,11.447 18,12 C18,12.553 17.553,13 17,13 M21.441,6.754 C20.987,4.652 19.348,3.013 17.246,2.559 C15.555,2.192 13.8,2 12,2 C10.2,2 8.445,2.192 6.755,2.558 C4.651,3.012 3.013,4.651 2.558,6.754 C2.192,8.444 2,10.199 2,12 C2,13.8 2.192,15.555 2.558,17.245 C3.013,19.348 4.651,20.987 6.754,21.441 C8.445,21.808 10.2,22 12,22 C13.8,22 15.555,21.808 17.246,21.441 C19.348,20.987 20.987,19.348 21.441,17.245 C21.808,15.555 22,13.8 22,12 C22,10.2 21.808,8.445 21.441,6.754"/>
</svg>
